Hatter-kde-dark/actions/24/view-financial-account-reopen.svg

<svg xmlns="http://www.w3.org/2000/svg" viewBox="0 0 24 24" width="24" height="24">
  <style type="text/css" id="current-color-scheme">
        .ColorScheme-Text {
            color:#dedede;
        }
        .ColorScheme-NegativeText {
            color:#da4453;
        }
    </style>
  <g transform="translate(1,1)">
    <path d="M 19,2.9941406 10.443359,10 H 3 v 9 h 16 v -5 h -1 v 3 H 12.509766 L 19,11.6875 Z M 5.71875,3 3,5.5 5.71875,8 6.40625,7.34375 4.96875,6.0019531 H 9 V 5 H 4.96875 L 6.40625,3.65625 Z M 18,5.1054688 v 6.1074222 l -7,5.732421 V 10.835938 Z M 4,11 h 6 v 6 H 4 Z m 1,1 v 1 h 2 v -1 z m 0,2 v 1 h 2 v -1 z" style="fill:currentColor; fill-opacity:1; stroke:none" class="ColorScheme-Text"/>
    <path d="m8 12v1h1v-1h-1zm0 2v1h1v-1h-1z" style="fill:currentColor; fill-opacity:1; stroke:none" class="ColorScheme-NegativeText"/>
  </g>
</svg>

<?xml version="1.0" encoding="UTF-8"?>
<svg width="24" height="24" viewBox="0 0 24 24" xmlns="http://www.w3.org/2000/svg">
 <style id="current-color-scheme" type="text/css">.ColorScheme-Text {
            color:#dedede;
        }
        .ColorScheme-NegativeText {
            color:#da4453;
        }</style>
 <g transform="translate(1,1)" fill="currentColor">
  <path class="ColorScheme-Text" d="m19 2.9941-8.5566 7.0059h-7.4434v9h16v-5h-1v3h-5.4902l6.4902-5.3125zm-13.281 0.0058594-2.7188 2.5 2.7188 2.5 0.6875-0.65625-1.4375-1.3418h4.0312v-1.002h-4.0312l1.4375-1.3438zm12.281 2.1055v6.1074l-7 5.7324v-6.1094zm-14 5.8945h6v6h-6zm1 1v1h2v-1zm0 2v1h2v-1z"/>
  <path class="ColorScheme-NegativeText" d="m8 12v1h1v-1h-1zm0 2v1h1v-1h-1z"/>
 </g>
</svg>
